Sources/FrostedUI/Resources/Icons.xcassets/xCircleFilled32.imageset/x-circle-filled-32.svg

<svg width="32" height="32" viewBox="0 0 32 32" fill="none" xmlns="http://www.w3.org/2000/svg" data-fui-icon="true">
  <path
    fill-rule="evenodd"
    clip-rule="evenodd"
    d="M1 16C1 7.71573 7.71573 1 16 1C24.2843 1 31 7.71573 31 16C31 24.2843 24.2843 31 16 31C7.71573 31 1 24.2843 1 16ZM10.2929 10.2929C9.90237 10.6834 9.90237 11.3166 10.2929 11.7071L14.5858 16L10.2929 20.2929C9.90237 20.6834 9.90237 21.3166 10.2929 21.7071C10.6834 22.0976 11.3166 22.0976 11.7071 21.7071L16 17.4142L20.2929 21.7071C20.6834 22.0976 21.3166 22.0976 21.7071 21.7071C22.0976 21.3166 22.0976 20.6834 21.7071 20.2929L17.4142 16L21.7071 11.7071C22.0976 11.3166 22.0976 10.6834 21.7071 10.2929C21.3166 9.90237 20.6834 9.90237 20.2929 10.2929L16 14.5858L11.7071 10.2929C11.3166 9.90237 10.6834 9.90237 10.2929 10.2929Z"
    fill="currentColor"
  />
</svg>

<svg xmlns="http://www.w3.org/2000/svg" width="32" height="32" fill="none" data-fui-icon="true" viewBox="0 0 32 32"><path fill="currentColor" fill-rule="evenodd" d="M1 16C1 7.716 7.716 1 16 1s15 6.716 15 15-6.716 15-15 15S1 24.284 1 16m9.293-5.707a1 1 0 0 0 0 1.414L14.586 16l-4.293 4.293a1 1 0 1 0 1.414 1.414L16 17.414l4.293 4.293a1 1 0 0 0 1.414-1.414L17.414 16l4.293-4.293a1 1 0 0 0-1.414-1.414L16 14.586l-4.293-4.293a1 1 0 0 0-1.414 0" clip-rule="evenodd"/></svg>
